X:1
T:Come with the Wise Men
T:Come with the Wise Men
T:Isaac Hickman Meredith
T:Burton Hockey Winslow, 1903
T:Public Domain Courtesy of the Cyber Hymnal™
T:Public Domain Courtesy of the Cyber Hymnal™
C:Isaac Hickman Meredith
Z:Public Domain
Z:Courtesy of the Cyber Hymnal™
%%score ( 1 2 ) ( 3 4 )
L:1/8
Q:1/4=112
M:6/8
K:Bb
V:1 treble 
V:2 treble 
V:3 bass 
V:4 bass 
V:1
 [DF]3 [^C=E]2 [DF] | [Fd]3 [Fc]3 | [GB]2 [^FA] (cB)[EG] | [DF]3- [DF]2 z | [CE]2 [DF] [EA]2 [EG] | %5
w: 1.~Come with the|wise men!|led by an- * y|sign— *|This the ho- ly|
w: 2.~Seek with the|wise men!|seek, and ye * shall|find— *|Seek- ing all the|
w: 3.~Kneel with the|wise men!|’tis the Lord * of|all, *|At Whose feet the|
 [^C=E]2 [DF] [DB]3 | [=EA]2 [EG] [Ec]2 [Ed] | ([Fc-]3 [Ec]2) z | [DF]3 [^C=E]2 [DF] | %9
w: prom- ised one,|babe, yet Lord di-|vine! *|Won- der- ful|
w: world He came,|Sav- ior of man-|kind! *|Wise men are|
w: saints a- bove|now a- dor- ing|fall! *|Of- fer your|
 [Fd]3 [Fc]3 | [GB]2 [^FA] (cB)[EG] | [DF]3- [DF]2 z | [EG]2 [^FA] [GB]2 [Ac] | d3 [Ge]2 [Gc] | %14
w: strang- er|from the courts * a-|bove, *|In the time ap-|point- ed, God’s|
w: seek- ers,|they the tru- * ly|wise— *|See! the Sought for|ag- es be-|
w: rar- est,|own Him as * your|Lord; *|His a roy- al|ser- vice with|
 [FB]3 A3 | [DB]6 ||"^Refrain" [dfd']3 [dfd']2 [cec'] | [cec'] [Bdb]3- [Bdb][Afa] | %18
w: * gift|of|love. * *||
w: * fore|you|lies! Hom- age|we ren- * der,|
w: * great|re-|ward. * *||
 [Geg]3 [Bgb]2 [Geg] | [Geg] [Fdf]3- [Fdf]2 | [Bdb]3 [Bdb]2 [cec'] | [dfd']2 [Bdb] [ege']2 [dfd'] | %22
w: ||||
w: Thou king and|de- fend- *|er! Kneel- ing|with wise men great,|
w: ||||
 [c=ec']3 [cec']2 [dfd'] | [cec']6 | [dfd']3 [dfd']2 [cec'] | [cec'] [Bdb]3- [Bdb][Afa] | %26
w: ||||
w: at love’s ho-|ly|shrine. All lands|shall own * Thee!|
w: ||||
 [Geg]3 [Bgb]2 [Geg] | [Geg] [Fdf]3- [Fdf]2 | [Bdb]3 [Bdb]2 [cec'] | [dfd']2 [ege'] [dfd']2 [Bdb] | %30
w: ||||
w: As Lord shall|en- throne *|Thee! Thine is|the king- dom, and|
w: ||||
 [cec']3 [cec']3 | [Bdb]3- [Bdb]2 z |] %32
w: ||
w: the glo-|ry *|
w: ||
V:2
 x6 | x6 | x3 G2 x | x6 | x6 | x6 | x6 | x6 | x6 | x6 | x3 G2 x | x6 | x6 | B2 _A x3 | x3 F2 E | %15
 x6 || x6 | x6 | x6 | x6 | x6 | x6 | x6 | x6 | x6 | x6 | x6 | x6 | x6 | x6 | x6 | x6 |] %32
V:3
 [B,,B,]3 [B,,G,]2 [B,,F,] | [B,,B,]3 [D,B,]3 | [E,B,]2 [E,B,] [E,E]2 [E,B,] | %3
 [B,,B,]3- [B,,B,]2 z | [F,A,]2 [F,A,] [F,C]2 [F,A,] | [B,,B,]2 [B,,B,] [B,,F,]3 | %6
 [C,B,]2 [C,B,] [C,G,]2 [C,B,] | [F,A,]3- [F,A,]2 z | [B,,B,]3 [B,,G,]2 [B,,F,] | %9
 [B,,B,]3 [D,B,]3 | [E,B,]2 [E,B,] [E,E]2 [E,B,] | [B,,B,]3- [B,,B,]2 z | %12
 [E,B,]2 [D,D] [G,D]2 [F,F] | (F2 B, [E,B,]2) [E,E] | [F,D]3 [F,C]3 | [B,,B,]6 || %16
 (B,,F,B,) (DB,)F, | B,, (F,B,DB,)F, | (E,G,B,) (EB,)G, | B,, (F,B,DB,F,) | (C,F,B,) (DB,)F, | %21
 (B,,F,)B, (DB,)F, | (C,G,B,) (=EC)B, | (F,A,CEDC) | (B,,F,B,) (DB,)F, | B,, (F,B,DB,)F, | %26
 (E,G,B,) (EB,)G, | B,, (F,B,DB,F,) | (B,,F,B,) (DB,)F, | (B,,F,)B, (DB,)F, | (F,,F,G,) (A,G,F,) | %31
 [B,,F,B,]3- [B,,F,B,]2 z |] %32
V:4
 x6 | x6 | x6 | x6 | x6 | x6 | x6 | x6 | x6 | x6 | x6 | x6 | x6 | B,3 x3 | x6 | x6 || x6 | x6 | %18
 x6 | x6 | x6 | x6 | x6 | x6 | x6 | x6 | x6 | x6 | x6 | x6 | x6 | x6 |] %32

